assets/ios/swift/Icons.xcassets/notifications.imageset/notifications.svg

<svg width="24" height="24" viewBox="0 0 24 24" fill="none" xmlns="http://www.w3.org/2000/svg">
<path d="M11.9999 3C18.9999 3 18.9999 10 18.9999 10V16L20.2928 17.2929C20.9228 17.9229 20.4766 19 19.5857 19H4.41411C3.52321 19 3.07704 17.9229 3.70701 17.2929L4.9999 16V10C4.9999 10 4.9999 3 11.9999 3ZM16.9999 10.0104L16.9993 9.98802C16.9984 9.96033 16.9962 9.91049 16.9913 9.84171C16.9814 9.70348 16.9607 9.49294 16.9177 9.23505C16.8302 8.70978 16.6588 8.04 16.336 7.39443C16.0172 6.75669 15.5703 6.17979 14.9374 5.75785C14.317 5.34426 13.3999 5 11.9999 5C10.5999 5 9.68281 5.34426 9.06243 5.75785C8.42952 6.17979 7.98262 6.75669 7.66375 7.39443C7.34097 8.04 7.16961 8.70978 7.08206 9.23505C7.03908 9.49294 7.01836 9.70348 7.00849 9.84171C7.00358 9.91049 7.00142 9.96033 7.0005 9.98802L6.9999 10.0104V16.8284L6.82833 17H17.1715L16.9999 16.8284V10.0104Z" fill="black"/>
<path d="M11.9999 22C10.8953 22 9.99988 21.1046 9.99988 20H13.9999C13.9999 21.1046 13.1044 22 11.9999 22Z" fill="black"/>
</svg>

<svg xmlns="http://www.w3.org/2000/svg" width="24" height="24" fill="black" viewBox="0 0 24 24">
  <path d="M12 3c7 0 7 7 7 7v6l1.293 1.293c.63.63.184 1.707-.707 1.707H4.414c-.89 0-1.337-1.077-.707-1.707L5 16v-6s0-7 7-7Zm5 7.01v-.022l-.009-.146a6.598 6.598 0 0 0-.073-.607 6.604 6.604 0 0 0-.582-1.84c-.319-.638-.766-1.215-1.399-1.637C14.317 5.344 13.4 5 12 5s-2.317.344-2.938.758c-.632.422-1.08.999-1.398 1.636a6.607 6.607 0 0 0-.582 1.841A6.593 6.593 0 0 0 7 9.988v6.84L6.828 17h10.344L17 16.828V10.01ZM12 22a2 2 0 0 1-2-2h4a2 2 0 0 1-2 2Z"/>
</svg>
